/* XPM */
static char *closebutton[] = {
/* columns rows colors chars-per-pixel */
"48 36 3 1",
"  c black",
". c #020202",
"X c None",
/* pixels */
"XXXXXXXXXXXXXXXXXXXXXXXXXXXXXXXXXXXXXXXXXXXXXXXX",
"XXXXXXXXXXXXXXXXXXXXXXXXXXXXXXXXXXXXXXXXXXXXXXXX",
"XXXXXXXXXXXXXXXXXXXXXXXXXXXXXXXXXXXXXXXXXXXXXXXX",
"XXXXXXXXXXXXXXXXXXXXXXXXXXXXXXXXXXXXXXXXXXXXXXXX",
"XXXXXXXXXXXXXXXXXXXXXXXXXXXXXXXXXXXXXXXXXXXXXXXX",
"XXXXXXXXXXXXXXXXXXXXXXXXXXXXXXXXXXXXXXXXXXXXXXXX",
"XXXXXXXXXXXXXXXXXXXXXXXXXXXXXXXXXXXXXXXXXXXXXXXX",
"XXXXXXXXXXXXXXXXXXXXXXXXXXXXXXXXXXXXXXXXXXXXXXXX",
"XXXXXXXXXXXXX   XXXXXXXXXXXXXXXXX   XXXXXXXXXXXX",
"XXXXXXXXXXXXXX   XXXXXXXXXXXXXXX   XXXXXXXXXXXXX",
"XXXXXXXXXXXXXXX   XXXXXXXXXXXXX   XXXXXXXXXXXXXX",
"XXXXXXXXXXXXXXXX   XXXXXXXXXXX   XXXXXXXXXXXXXXX",
"XXXXXXXXXXXXXXXXX   XXXXXXXXX   XXXXXXXXXXXXXXXX",
"XXXXXXXXXXXXXXXXXX   XXXXXXX   XXXXXXXXXXXXXXXXX",
"XXXXXXXXXXXXXXXXXXX   XXXXX   XXXXXXXXXXXXXXXXXX",
"XXXXXXXXXXXXXXXXXXXX   XXX   XXXXXXXXXXXXXXXXXXX",
"XXXXXXXXXXXXXXXXXXXXX   X   XXXXXXXXXXXXXXXXXXXX",
"XXXXXXXXXXXXXXXXXXXXXX     XXXXXXXXXXXXXXXXXXXXX",
"XXXXXXXXXXXXXXXXXXXXXXX   XXXXXXXXXXXXXXXXXXXXXX",
"XXXXXXXXXXXXXXXXXXXXXX     XXXXXXXXXXXXXXXXXXXXX",
"XXXXXXXXXXXXXXXXXXXXX   X   XXXXXXXXXXXXXXXXXXXX",
"XXXXXXXXXXXXXXXXXXXX   XXX   XXXXXXXXXXXXXXXXXXX",
"XXXXXXXXXXXXXXXXXXX   XXXXX   XXXXXXXXXXXXXXXXXX",
"XXXXXXXXXXXXXXXXXX   XXXXXXX   XXXXXXXXXXXXXXXXX",
"XXXXXXXXXXXXXXXXX   XXXXXXXXX   XXXXXXXXXXXXXXXX",
"XXXXXXXXXXXXXXXX   XXXXXXXXXXX   XXXXXXXXXXXXXXX",
"XXXXXXXXXXXXXXX   XXXXXXXXXXXXX   XXXXXXXXXXXXXX",
"XXXXXXXXXXXXXX   XXXXXXXXXXXXXXX   XXXXXXXXXXXXX",
"XXXXXXXXXXXXX   XXXXXXXXXXXXXXXXX   XXXXXXXXXXXX",
"XXXXXXXXXXXXXXXXXXXXXXXXXXXXXXXXXXXXXXXXXXXXXXXX",
"XXXXXXXXXXXXXXXXXXXXXXXXXXXXXXXXXXXXXXXXXXXXXXXX",
"XXXXXXXXXXXXXXXXXXXXXXXXXXXXXXXXXXXXXXXXXXXXXXXX",
"XXXXXXXXXXXXXXXXXXXXXXXXXXXXXXXXXXXXXXXXXXXXXXXX",
"XXXXXXXXXXXXXXXXXXXXXXXXXXXXXXXXXXXXXXXXXXXXXXXX",
"XXXXXXXXXXXXXXXXXXXXXXXXXXXXXXXXXXXXXXXXXXXXXXXX",
"XXXXXXXXXXXXXXXXXXXXXXXXXXXXXXXXXXXXXXXXXXXXXXXX"
};
